X:1
T:Title
%%score 1 2 3 4
L:1/8
Q:1/4=80
M:6/4
K:G
V:1 treble nm="MusicXML Part"
V:2 treble nm="MusicXML Part"
V:3 treble-8 nm="MusicXML Part"
V:4 bass nm="MusicXML Part"
V:1
 z2 | z6 z6 | z6 z2 z2 B2 | B2 B2 c2 d2 c2 B2 | A6- A2 z2 B2 | B2 B2 c2 d2 c2 B2 | A6- A2 z2 B2 | %7
w: ||Een|klacht werd in Ra- ma ge-|hoord, _ Een|klacht werd in Ra- ma ge-|hoord, _ ge-|
 c4 B2 c4 B2 | c4 B2 c4 B2 | c4 B2 c4 B2 | c4 B2 c4 B2 | c4 B2 c4 z2 | B2 B2 B2 e2 e2 z2 | %13
w: ween _ _ ge-|ween _ _ ge-|ween _ _ ge-|ween _ _ ge-|ween _ _|en luid ge- jam- mer,|
 B2 B2 B2 e2 e2 e2 | e4 ^d2 e4 d2 | e4 ^d2 e6 | c6 B6 | A6 ^G6 | c6 B6 | A6 ^G6 | A4 B2 c4 d2 | %21
w: en luid ge- jam- mer, ge-|jam- * * *|* * mer:|Ra- chel,|Ra- chel,|Ra- chel,|Ra- chel,|we- * * *|
 e4 =f2 e6 | d4 c4 B2 A2 | B2 B2 B2 z6 | z6 cc cccc | ^c2 c4 dd dddd | e2 e4 ee eeee | B6 ^c6 | %28
w: * * nend,|om _ _ haar|kin- de- ren,|wei- gert zich te la- ten|troos- ten, wei- gert zich te la- ten|troos- ten, wei- gert zich te la- ten|troos- ten,|
"^poco a poco" A2 ^G2 F2"^rit." E4 E2 | =F6 E2 E2 ^F2 | G4 G2 ^G6 | E2 E2 F2 G4 G2 | %32
w: om- dat zij niet meer|zijn, om- dat zij|niet meer zijn,|om- dat zij niet meer|
"^decresc." ^G6 E2 E2 F2 | G4 G2 ^G6 | E2 E2 E2 E4 E2 | E12 |] %36
w: zijn, om- dat zij|niet meer zijn,|om- dat zij niet meer|zijn,|
V:2
 B2 | B2 B2 B2 B2 B2 E2 | ^D6- D2 z2 B2 | B2 B2 B2 B2 B2 E2 | ^D6- D2 z2 B2 | B2 B2 B2 B2 B2 E2 | %6
w: Een|klacht werd in Ra- ma ge-|hoord, _ Een|klacht werd in Ra- ma ge-|hoord, _ Een|klacht werd in Ra- ma ge-|
 ^D6- D2 z2 B2 | A4 G2 F4 B2 | A4 G2 F4 B2 | A4 G2 F4 B2 | A4 G2 F4 B2 | A4 G2 F4 z2 | %12
w: hoord, _ ge-|ween _ _ ge-|ween _ _ ge-|ween _ _ ge-|ween _ _ ge-|ween _ _|
 B2 B2 B2 c2 c2 z2 | B2 B2 B2 c2 c2 B2 | A6- A4 B2 | G4 F2 G6 | =F6 E6 | =F6 E6 | =F6 E6 | =F6 E6 | %20
w: en luid ge- jam- mer,|en luid ge- jam- mer, ge-|jam- * *|* * mer:|Ra- chel,|Ra- chel,|Ra- chel,|Ra- chel,|
 E4 =F2 E6 | A4 B2 c4 d2 | B4 G4 F2 E2 | D2 D2 D2 DD DDDD | E2 E4 EE EEEE | F2 F4 FF FFFF | %26
w: we- * nend,|we- * * nend|om _ _ haar|kin- de- ren, wei- gert zich te la- ten|troos- ten, wei- gert zich te la- ten|troos- ten, wei- gert zich te la- ten|
 ^G2 G4 GG GGGG | A4 ^G2 A6 | z12 | z6 A2 ^G2 F2 | E4 E2 =F6 | A,2 B,2 ^C2 D4 D2 | E6 A,2 B,2 ^C2 | %33
w: troos- ten, wei- gert zich te la- ten|troos- * ten,||om- dat zij|niet meer zijn,|om- dat zij niet meer|zijn, om- dat zij|
 D4 D2 E6 | B,6 B,6 | ^C12 |] %36
w: niet meer zijn,|niet meer|zijn.|
V:3
 z2 | z6 z6 | z6 z6 | z6 z6 | z6 z2 z2 G2 | G2 G2 A2 B2 A2 G2 | F6- F2 z2 z2 | z6 z6 | z6 z6 | %9
w: ||||Een|klacht werd in Ra- ma ge-|hoord, _|||
 z6 B2 B2 B2 | e2 e2 z2 B2 B2 B2 | e2 e2 z2 B2 B2 B2 | e2 e2 z2 B2 B2 B2 | e2 e2 z2 B2 B2 B2 | %14
w: en luid ge-|jam- mer, en luid ge-|jam- mer, en luid ge-|jam- mer, en luid ge-|jam- mer, en luid ge-|
 c4 B2 c4 B2 | A6 B6 | A6 ^G6 | =F6 E6 | A6 ^G6 | A4 B2 c4 d2 | c6 B6 | A6 ^G6 | G4- G4 A2 c2 | %23
w: jam- * * *|* mer:|Ra- chel,|Ra- chel,|Ra- chel,|we- * * nend,|Ra- chel,|Ra- chel,|om _ _ haar|
 G2 G2 G2 z6 | GGGG GG A2 A4 | AAAA AA B2 B4 | BBBB BB c2 c4 | d6 e6 | z12 | z12 | z12 | %31
w: kin- de- ren,|wei- gert zich te la- ten troos- ten,|wei- gert zich te la- ten troos- ten,|wei- gert zich te la- ten troos- ten,|troos- ten,||||
 A2 ^G2 F2 E4 E2 | =F6 A2 ^G2 A2 | B4 B2 B6 | A6 ^G6 | A12 |] %36
w: om- dat zij niet meer|zijn, om- dat zij|niet meer zijn,|niet meer|zijn.|
V:4
 z2 | z6 z6 | z6 z6 | z6 z6 | z6 z2 z2 E,2 | E,2 E,2 F,2 G,2 F,2 E,2 | B,,6- B,,2 z2 z2 | z6 z6 | %8
w: ||||Een|klacht werd in Ra- ma ge-|hoord, _||
 z6 z6 | z6 B,2 B,2 B,2 | C2 C2 z2 B,2 B,2 B,2 | C2 C2 z2 B,2 B,2 B,2 | C2 C2 z2 B,2 B,2 B,2 | %13
w: |en luid ge-|jam- mer, en luid ge-|jam- mer, en luid ge-|jam- mer, en luid ge-|
 C2 C2 z2 B,2 B,2 B,2 | A,4 G,2 F,4 B,2- | B,6 E,6 | =F,6 E,6 | C,6 B,,6 | A,,4 B,,2 C,4 D,2 | %19
w: jam- mer, en luid ge-|jam- * * *|* mer:|Ra- chel,|Ra- chel,|we- * * *|
 E,4 =F,2 E,6 | =F,6 E,6 | =F,6 E,6 | E,4 _E,4 D,4 | G,,2 G,,2 G,,2 z6 | C,C,C,C, C,C, A,,2 A,,4 | %25
w: * * nend,|Ra- chel,|Ra- chel,|om _ haar|kin- de- ren,|wei- gert zich te la- ten troos- ten,|
 F,,F,,F,,F,, F,,F,, B,,2 B,,4 | B,,B,,B,,B,, B,,B,, E,2 E,4 | E,6 A,,6 | z12 | z12 | z12 | z12 | %32
w: wei- gert zich te la- ten troos- ten,|wei- gert zich te la- ten troos- ten,|troos- ten,|||||
 z6 A,2 ^G,2 F,2 | E,4 E,2 =F,6 | E,6 E,6 | A,,12 |] %36
w: om- dat zij|niet meer zijn,|niet meer|zijn.|

